icons/svg/old_road_shields/h_tru_shield3.svg

<svg width="32" height="17" viewBox="0 0 32 17" fill="none" xmlns="http://www.w3.org/2000/svg">
<g clip-path="url(#clip0)">
<path fill-rule="evenodd" clip-rule="evenodd" d="M8.043 0.0150146H23.272C27.672 0.0150146 31.272 3.62101 31.272 8.02801V8.94401C31.272 13.379 27.672 16.985 23.272 16.985H8.043C3.613 16.985 0.0139999 13.38 0.0139999 8.94401V8.02701C0.0139999 3.62101 3.613 0.0150146 8.043 0.0150146Z" fill="#E7687D"/>
<path fill-rule="evenodd" clip-rule="evenodd" d="M8.242 1.10199H23.043C26.871 1.10199 30.014 4.24999 30.014 8.11299V8.88499C30.014 12.719 26.871 15.868 23.043 15.868H8.242C4.414 15.868 1.271 12.72 1.271 8.88499V8.11299C1.271 4.24999 4.414 1.10199 8.242 1.10199Z" fill="white"/>
<path fill-rule="evenodd" clip-rule="evenodd" d="M8.613 2.56201H22.699C25.785 2.56201 28.299 5.08101 28.299 8.17101V8.80001C28.299 11.89 25.785 14.437 22.699 14.437H8.613C5.527 14.437 2.984 11.89 2.984 8.80001V8.17001C2.984 5.08001 5.527 2.56201 8.613 2.56201Z" fill="#E7687D"/>
</g>
<defs>
<clipPath id="clip0">
<path d="M0 0H31.285V17H0V0Z" fill="white"/>
</clipPath>
</defs>
</svg>

<?xml version="1.0" encoding="utf-8"?>
<!-- Generator: Adobe Illustrator 16.0.4, SVG Export Plug-In . SVG Version: 6.00 Build 0)  -->
<!DOCTYPE svg PUBLIC "-//W3C//DTD SVG 1.1//EN" "http://www.w3.org/Graphics/SVG/1.1/DTD/svg11.dtd">
<svg version="1.1" id="Слой_1" xmlns="http://www.w3.org/2000/svg" xmlns:xlink="http://www.w3.org/1999/xlink" x="0px" y="0px"
	 width="31.285px" height="17px" viewBox="0 0 31.285 17" enable-background="new 0 0 31.285 17" xml:space="preserve">
<path fill-rule="evenodd" clip-rule="evenodd" fill="#E7687D" d="M8.043,0.015h15.229c4.4,0,8,3.606,8,8.013v0.916
	c0,4.435-3.6,8.041-8,8.041H8.043c-4.43,0-8.029-3.605-8.029-8.041V8.027C0.014,3.621,3.613,0.015,8.043,0.015L8.043,0.015z"/>
<path fill-rule="evenodd" clip-rule="evenodd" fill="#FFFFFF" d="M8.242,1.102h14.801c3.828,0,6.971,3.148,6.971,7.011v0.772
	c0,3.834-3.143,6.983-6.971,6.983H8.242c-3.828,0-6.971-3.148-6.971-6.983V8.113C1.271,4.25,4.414,1.102,8.242,1.102L8.242,1.102z"
	/>
<path fill-rule="evenodd" clip-rule="evenodd" fill="#E7687D" d="M8.613,2.562h14.086c3.086,0,5.6,2.519,5.6,5.609V8.8
	c0,3.09-2.514,5.637-5.6,5.637H8.613c-3.086,0-5.629-2.547-5.629-5.637V8.17C2.984,5.08,5.527,2.562,8.613,2.562L8.613,2.562z"/>
</svg>
